X: 35721
T: Saint Patrick's Day
R: jig
M: 6/8
K: Gmajor
D|:GAG GBc|d3 dBG|A^GA B=GD|EFG AFD|
GAG GBc|d3 dBG|A^GA B=GD|Ez FG2 D|
GAG GBc|ded dBG|A^GA B=GD|EFG AFD|
GAG GBc|d3 dBG|A^GA B=GD|Ez FG2D|
GAG GBc|d3 dBG|A^GA B=GD|EFG AFD|
GAG GBc|d3 dBG|A^GA B=GD|Ez FG2 B|
def gfe|{a}fed edB|def gfe|{a}fed e2 B|
def gfe|fed efg||GAG GBc|d3 dBG|A^GA B=GD|EFG AFD|
GAG GBc|d3 dBG|A^GA B=GD|1 Ez FG2 D:|2 Ez FG3||

